!!!!SEGMENT: pl-wnifc--13846--051_anonim--51-tancowala-magdalena.krn
!!!kernsource:
!!!cenid: 18xx:3273
!!!COM: Anonim
!!!COM-rismid: pe30004985
!!!CDT:
!!!CNT:
!!!GTL: Pieśni polskie i ruskie ludu galicyjskiego
!!!OTL: 51. Tańcowała Magdalena
!!!PDT: 1833
!!!AGN:
!!!SMS-siglum: PL-Wnifc
!!!SMS-shelfmark: 13846
!!!SMS-shelfwork: 051 G
!!!SMS-variant:
!!!SMS-altvar:
!!!NIFC-rismid: 1001037043
!!!URL-scan: http://repozytorium.nifc.pl/skany/pl-wnifc-nut--13846
!!!ONB-nifc:
!!!OMD: Allegretto
!!!key: D
**kern	**kern	**kern	**text	**text
*part2	*part2	*part1	*part1	*part1
*staff3	*staff2	*staff1	*staff1	*staff1
*I"Fortepian	*I"Fortepian	*I"Głos	*	*
*Ipiano	*Ipiano	*Ivox	*	*
*ICklav	*ICklav	*ICvox	*	*
*IGacmp	*IGacmp	*IGsolo	*	*
*clefF4	*clefG2	*clefG2	*	*
*k[f#c#]	*k[f#c#]	*k[f#c#]	*	*
*D:	*D:	*D:	*	*
*M2/4	*M2/4	*M2/4	*	*
*>[A,A,B,B]	*>[A,A,B,B]	*>[A,A,B,B]	*	*
=1	=1	=1	=1	=1
*>A	*>A	*>A	*	*
!LO:N:vis=2	!	!LO:TX:a:t=D.b.B.\n610.	!	!
8DD/L	8f#\ 8dd\	8dd\	Tań	po-
.	8qee/	8qee/	.	.
8D/	16f#\LL 16dd\	16dd\LL	co-	-trą-
.	16cc#\JJ	16cc#\JJ	.	.
8D/	8f#\L 8dd\	8dd\	-wa-	-ciul
8D/J	8g\J 8ee\	8ee\	-ła	ją
=2	=2	=2	=2	=2
!LO:N:vis=2	!	!	!	!
8DD/L	8a\ 8ff#\	8ff#\	Ma-	no-
.	8qgg/	8qgg/	.	.
8D/	(16a\LL 16ff#\	(16ff#\LL	-gda-	-gą
.	16ee\JJ)	16ee\JJ)	.	.
8D/	8a\L 8ff#\	8ff#\	-le-	z_ty-
8D/J	8f#\J 8dd\	8dd\	-na	-łu
!!LO:LB:g=original
=3	=3	=3	=3	=3
*^	*	*	*	*
!LO:N:vis=2	!	!	!	!	!
8AA/L	2AA\	8g\ 8ee\	8ee\	tań-	o-
.	.	8qff#/	8qff#/	.	.
8A/	.	(16g\LL 16ee\	(16ee\LL	-co-	-na
.	.	16dd\JJ)	16dd\JJ)	.	.
8A/	.	8g\L 8ee\	8ee\	-wał	mó-
8A/J	.	8e\J 8cc#\	8cc#\	i	-wi
*v	*v	*	*	*	*
=4	=4	=4	=4	=4
*	*^	*	*	*
4D\ 4A\	4f#\ 4dd\	4ryy	4dd\	Grze-	cze-
4D\ 4d\	4a/	4f#\	4a/	-góz	-goż?
*	*v	*v	*	*	*
=5:|!|:	=5:|!|:	=5:|!|:	=5:|!|:	=5:|!|:
*>B	*>B	*>B	*>B	*
*^	*	*	*	*
!LO:N:vis=2	!	!	!	!	!
8AA/L	2AA\	8ee\ 8gg\	8gg\	A	.
8A/	.	(16ee\LL 16gg\	(16gg\LL	tań-	.
.	.	16dd#X\JJ) 16ff#\	16ff#\JJ)	.	.
8A/	.	8ee\L 8gg\	8gg\	-cuj	.
8A/J	.	8cc#\J 8ee\	8ee\	ze	.
*v	*v	*	*	*	*
!!LO:LB:g=original
=6	=6	=6	=6	=6
!LO:N:vis=2	!	!	!	!
8D\L	8a\ 8ff#\	8ff#\	Ma-	.
8A\	(16a\LL 16ff#\	(16ff#\LL	-gda-	.
.	16ee\JJ)	16ee\JJ)	.	.
8A\	8a\L 8ff#\	8ff#\	-le-	.
8A\J	8f#\J 8dd\	8dd\	-no	.
=7	=7	=7	=7	=7
!LO:N:vis=2	!	!	!	!
8AA\L	8g\L 8ee\	8ee\	wtéy	.
8C#\ 8A\	8g\ 8ee\	8ee\	zie-	.
8C#\ 8A\	8g\ 8ee\	8ee\	-lo-	.
8BB\J 8E\ 8G\ 8A\	8e/J 8cc#/	8cc#\	-ney	.
=8	=8	=8	=8	=8
*^	*	*	*	*
!	!LO:N:vis=2	!	!	!	!
4F#/ 4A/	8D\L	8.f#\L 8.dd\	(8.dd\L	su-	.
.	8d\	.	.	.	.
.	.	16dd\Jk 16ff#\	16ff#\Jk)	.	.
4ryy	8A\	4ff#\ 4aa\	4aa\	-kni	.
.	8d\J	.	.	.	.
!!LO:LB:g=original
=9	=9	=9	=9	=9	=9
!LO:N:vis=2	!	!	!	!	!
8AA\L	2AA/	8ee\ 8gg\	8gg\	a	.
8A\	.	(16ee\LL 16gg\	(16gg\LL	jak-	.
.	.	16dd\JJ) 16ff#\	16ff#\JJ)	.	.
8A\	.	8ee\ 8gg\	8gg\	-że	.
8A\J	.	8cc#\ 8ee\	8ee\	ja	.
=10	=10	=10	=10	=10	=10
!LO:N:vis=2	!	!	!	!	!
8D\L	2D/	8f#\ 8ff#\	8ff#\	mam	.
8A\	.	(16a\LL 16ff#\	(16ff#\LL	tań-	.
.	.	16ee\JJ)	16ee\JJ)	.	.
8A\	.	8a\L 8ff#\	8ff#\	-co-	.
8A\J	.	8f#\J 8dd\	8dd\	-wać	.
*v	*v	*	*	*	*
=11	=11	=11	=11	=11
!LO:N:vis=2	!	!	!	!
8AA\L	8g\L 8ee\	8ee\	kej	.
8C#\ 8A\	8g\ 8ee\	8ee\	mi	.
8C#\ 8A\	8g\ 8ee\	8ee\	ku-	.
8BB\J 8G\ 8A\	8e/J 8cc#/	8cc#\	-per	.
=12	=12	=12	=12	=12
4D\ 4F#\ 4A\	4f#\ 4dd\	4dd\	stłu-	.
4D\ 4F#\ 4A\ 4d\	4f#\ 4dd\	4dd\	-kli	.
!!LO:PB:g=original
==	==	==	==	==
*-	*-	*-	*-	*-
!!!system-decoration: s1,{(s2,s3)}
!!!RDF**kern: < = below
!!!RDF**kern: > = above
!!!ENC: E.Ziętek
!!!ENC: Marta Chmielewska
!!!END: 2021-11-10
